X: 108
T:Saffron and Blue
R:Reel
C:Manus McGuire
Z:alf.
M:4/4
L:1/8
K:G
DF|:GBdg bagf|gdBe d/e/d BG|FGAB cBce|agfe fdcA|
GBdg bagf|gdBe d/e/d BG|FGAB cAFG|[1 AGGF G2DF:|[2 AGGF G2z|]
B|[1AF (3FFF Adcd|[2  AD (3DDD CDA,D|| BGBd g2ag|fgag fdcA|d/e/dcd AdFd|
AF (3FFF Adcd|BGBd g2ag|fgag fdcA|FGAB BGG:| FDCA, G,4|]
